icons/old_woman_fill.svg

<svg width="48" height="48" viewBox="0 0 48 48" fill="none" xmlns="http://www.w3.org/2000/svg">
<path fill-rule="evenodd" clip-rule="evenodd" d="M32 28C32 26.3431 33.3431 25 35 25C36.6569 25 38 26.3431 38 28V43C38 43.5523 37.5523 44 37 44C36.4477 44 36 43.5523 36 43V28C36 27.4477 35.5523 27 35 27C34.4477 27 34 27.4477 34 28V28.343C34 28.8953 33.5523 29.343 33 29.343C32.4477 29.343 32 28.8953 32 28.343V28Z" fill="black"/>
<path fill-rule="evenodd" clip-rule="evenodd" d="M22 13C24.4853 13 26.5 10.9853 26.5 8.5C26.5 6.01472 24.4853 4 22 4C19.5147 4 17.5 6.01472 17.5 8.5C17.5 10.9853 19.5147 13 22 13ZM11.9188 17.0013C13.211 15.7416 15.0496 15 17.2549 15H24.5759C29.5475 15 32.5189 16.722 34.1944 18.7586C34.9985 19.736 35.4437 20.7139 35.6894 21.4539C35.8353 21.8933 35.9494 22.3475 35.9975 22.8073L35.9989 22.8218L35.9995 22.8281L35.9998 22.8311C36.0021 22.9656 36.0016 22.9623 36.0008 22.9273C35.9999 22.8909 35.9987 22.8204 36 22.8339C36.0953 23.9347 35.2453 24.9014 34.1014 24.9931C32.9668 25.0841 31.9693 24.2802 31.86 23.193L31.8598 23.1915C31.8583 23.1802 31.854 23.1506 31.8453 23.1051C31.8277 23.0137 31.7932 22.8623 31.7297 22.6711C31.6019 22.2861 31.3651 21.764 30.9352 21.2414C30.3209 20.4947 29.1584 19.559 26.8685 19.1758C26.8777 19.2371 26.8824 19.2995 26.8824 19.363C26.8824 21.7926 29.7645 32.502 30.7062 35.9362C30.8631 36.5082 30.4897 37.0878 29.9041 37.1817C23.9 38.1446 20.1031 38.177 14.0982 37.1878C13.5119 37.0912 13.1414 36.5084 13.3029 35.9365C13.7602 34.3164 14.6599 31.075 15.4708 27.8321C14.0237 27.5477 12.7983 26.9114 11.8635 25.9941C10.5862 24.7407 9.98424 23.0911 10.0003 21.4808C10.0164 19.8719 10.6491 18.239 11.9188 17.0013ZM14.8772 19.8112C15.304 19.3951 16.014 19.0211 17.1572 19.0009C17.1312 19.1163 17.1176 19.237 17.1176 19.363C17.1176 20.2689 16.8233 21.9513 16.3919 23.9302C15.6382 23.7992 15.1459 23.5021 14.8314 23.1934C14.3889 22.7593 14.1506 22.1589 14.157 21.5192C14.1634 20.8781 14.4158 20.261 14.8772 19.8112Z" fill="black"/>
<path fill-rule="evenodd" clip-rule="evenodd" d="M16.5 39.0147V42.4971C16.5 43.2509 17.0593 43.8876 17.8068 43.9846C18.5543 44.0817 19.2577 43.6091 19.4502 42.8803L20.3645 39.4201C19.1296 39.3584 17.8642 39.2239 16.5 39.0147ZM23.6336 39.4131L24.5498 42.8803C24.7423 43.6091 25.4457 44.0817 26.1932 43.9846C26.9407 43.8876 27.5 43.2509 27.5 42.4971V39.0005C26.1352 39.2084 24.8692 39.3465 23.6336 39.4131Z" fill="black"/>
</svg>

<svg
  xmlns="http://www.w3.org/2000/svg"
  width="24"
  height="24"
  viewBox="0 0 24 24"
  fill="none"
  stroke="currentColor"
  stroke-width="2"
  stroke-linecap="round"
  stroke-linejoin="round"
>
  <path
    fill-rule="evenodd"
    d="M32 28a3 3 0 1 1 6 0v15a1 1 0 1 1-2 0V28a1 1 0 1 0-2 0v.343a1 1 0 1 1-2 0z"
    clip-rule="evenodd"
  />
  <path
    fill-rule="evenodd"
    d="M22 13a4.5 4.5 0 1 0 0-9 4.5 4.5 0 0 0 0 9m-10.081 4.001C13.21 15.741 15.049 15 17.255 15h7.32c4.973 0 7.944 1.722 9.62 3.759a8.4 8.4 0 0 1 1.494 2.695c.146.44.26.893.309 1.353v.015l.002.006v.006c.095 1.1-.755 2.067-1.899 2.16-1.134.09-2.132-.714-2.241-1.801v-.002l-.015-.086a4 4 0 0 0-.115-.434 4.5 4.5 0 0 0-.795-1.43c-.614-.746-1.777-1.682-4.066-2.065q.013.091.013.187c0 2.43 2.883 13.139 3.824 16.573a.994.994 0 0 1-.802 1.246c-6.004.963-9.8.995-15.806.006a.993.993 0 0 1-.795-1.251c.457-1.62 1.357-4.862 2.168-8.105-1.447-.284-2.673-.92-3.607-1.838A6.21 6.21 0 0 1 10 21.481 6.34 6.34 0 0 1 11.92 17m2.958 2.81c.427-.416 1.137-.79 2.28-.81q-.04.173-.04.362c0 .906-.294 2.588-.725 4.567-.754-.13-1.246-.428-1.56-.737a2.3 2.3 0 0 1-.675-1.674 2.41 2.41 0 0 1 .72-1.708"
    clip-rule="evenodd"
  />
  <path
    fill-rule="evenodd"
    d="M16.5 39.015v3.482a1.5 1.5 0 0 0 2.95.383l.915-3.46a38 38 0 0 1-3.865-.405m7.134.398.916 3.467a1.5 1.5 0 0 0 2.95-.383v-3.496c-1.365.207-2.63.346-3.866.412"
    clip-rule="evenodd"
  />
</svg>
